packages/icons/src/svgs/UI/Warning.svg

<?xml version="1.0" encoding="utf-8"?>
<!-- Generator: Adobe Illustrator 24.0.1, SVG Export Plug-In . SVG Version: 6.00 Build 0)  -->
<svg version="1.1" id="Layer_1" xmlns="http://www.w3.org/2000/svg" xmlns:xlink="http://www.w3.org/1999/xlink" x="0px" y="0px"
	 width="17.2307701px" height="16px" viewBox="0 0 17.2307701 16" enable-background="new 0 0 17.2307701 16" xml:space="preserve">
<path id="path-1_1_" fill-rule="evenodd" clip-rule="evenodd" fill="#181C56" d="M15.5019531,13.1218157L9.4571142,1.9960902
	c-0.3588352-0.6614536-1.3246355-0.6614536-1.6844244,0L1.7288052,13.1218157C1.3900118,13.7457933,1.8509617,14.5,2.5714943,14.5
	h12.0887241C15.379796,14.5,15.8407459,13.7457933,15.5019531,13.1218157L15.5019531,13.1218157z"/>
<path id="Icon-Fill" fill-rule="evenodd" clip-rule="evenodd" fill="#FFFFFF" d="M8.6203852,11
	c0.4832487,0,0.875,0.3917503,0.875,0.875s-0.3917513,0.875-0.875,0.875c-0.4832497,0-0.8750005-0.3917503-0.8750005-0.875
	S8.1371355,11,8.6203852,11z M9.3153849,5.5v4.1000004H7.9153848V5.5H9.3153849z"/>
</svg>

<?xml version="1.0" encoding="UTF-8"?>
<svg width="17.231px" height="16px" enable-background="new 0 0 17.2307701 16" version="1.1" viewBox="0 0 17.231 16" xml:space="preserve" xmlns="http://www.w3.org/2000/svg">
<path id="path-1_1_" d="m8.6152 1.5c-0.33128 0-0.6619 0.16537-0.8418 0.49609l-6.0449 11.125c-0.33879 0.62398 0.12322 1.3789 0.84375 1.3789h12.088c0.71958 0 1.1806-0.75493 0.8418-1.3789l-6.0449-11.125c-0.17942-0.33073-0.51052-0.49609-0.8418-0.49609zm-0.69922 4h1.3984v4.0996h-1.3984v-4.0996zm0.70508 5.5c0.48325 0 0.875 0.39175 0.875 0.875s-0.39175 0.875-0.875 0.875c-0.48325 0-0.875-0.39175-0.875-0.875 0-0.48325 0.39175-0.875 0.875-0.875z" fill="#181c56"/>
</svg>
